assets/Movie camera/Flat/movie_camera_flat.svg

<svg width="32" height="32" viewBox="0 0 32 32" fill="none" xmlns="http://www.w3.org/2000/svg">
<path d="M13.0004 14C13.6281 13.1643 14 12.1256 14 11C14 8.23858 11.7614 6 9 6C6.23858 6 4 8.23858 4 11C4 13.419 5.71776 15.4367 8 15.9V17H7C5.89543 17 5 17.8954 5 19V20L4.5 21.5L5 23V28C5 29.1046 5.89543 30 7 30H21C22.1046 30 23 29.1046 23 28L24 23.5L23 19C23 17.8954 22.1046 17 21 17H20V16C22.7614 16 25 13.7614 25 11C25 8.23858 22.7614 6 20 6C17.2386 6 15 8.23858 15 11C15 12.1256 15.3719 13.1643 15.9996 14H13.0004ZM2 19.5C2 19.2239 2.22386 19 2.5 19C2.77614 19 3 19.2239 3 19.5V20L3.5 21.5L3 23V24.5C3 24.7761 2.77614 25 2.5 25C2.22386 25 2 24.7761 2 24.5V19.5ZM25.5528 18.2237C25.214 18.3931 25 18.7393 25 19.1181L24 23.5L25 27.882C25 28.2608 25.214 28.6071 25.5528 28.7764L28.5528 30.2764C29.2177 30.6089 30 30.1254 30 29.382V17.6181C30 16.8747 29.2177 16.3912 28.5528 16.7236L25.5528 18.2237Z" fill="#321B41"/>
<path d="M8 25C8 24.4477 8.44772 24 9 24H19C19.5523 24 20 24.4477 20 25V27C20 27.5523 19.5523 28 19 28H9C8.44772 28 8 27.5523 8 27V25Z" fill="#D3D3D3"/>
<path d="M12 26C12 26.5523 11.5523 27 11 27C10.4477 27 10 26.5523 10 26C10 25.4477 10.4477 25 11 25C11.5523 25 12 25.4477 12 26Z" fill="#CA0B4A"/>
<path d="M15 26C15 25.4477 15.4477 25 16 25H17C17.5523 25 18 25.4477 18 26V26C18 26.5523 17.5523 27 17 27H16C15.4477 27 15 26.5523 15 26V26Z" fill="#433B6B"/>
<path d="M10 11C10 11.5523 9.55228 12 9 12C8.44772 12 8 11.5523 8 11C8 10.4477 8.44772 10 9 10C9.55228 10 10 10.4477 10 11ZM25 19H23V28H25V19ZM5 20H3V23H5V20ZM20 12C20.5523 12 21 11.5523 21 11C21 10.4477 20.5523 10 20 10C19.4477 10 19 10.4477 19 11C19 11.5523 19.4477 12 20 12Z" fill="#9B9B9B"/>
</svg>

<svg xmlns="http://www.w3.org/2000/svg" width="32" height="32" fill="none"><path fill="#321B41" d="M13 14a5 5 0 1 0-5 1.9V17H7a2 2 0 0 0-2 2v1l-.5 1.5L5 23v5a2 2 0 0 0 2 2h14a2 2 0 0 0 2-2l1-4.5-1-4.5a2 2 0 0 0-2-2h-1v-1a5 5 0 1 0-4-2h-3ZM2 19.5a.5.5 0 0 1 1 0v.5l.5 1.5L3 23v1.5a.5.5 0 0 1-1 0v-5Zm23.553-1.276a1 1 0 0 0-.553.894L24 23.5l1 4.382a1 1 0 0 0 .553.894l3 1.5A1 1 0 0 0 30 29.382V17.618a1 1 0 0 0-1.447-.894l-3 1.5Z"/><path fill="#D3D3D3" d="M8 25a1 1 0 0 1 1-1h10a1 1 0 0 1 1 1v2a1 1 0 0 1-1 1H9a1 1 0 0 1-1-1v-2Z"/><path fill="#CA0B4A" d="M12 26a1 1 0 1 1-2 0 1 1 0 0 1 2 0Z"/><path fill="#433B6B" d="M15 26a1 1 0 0 1 1-1h1a1 1 0 1 1 0 2h-1a1 1 0 0 1-1-1Z"/><path fill="#9B9B9B" d="M10 11a1 1 0 1 1-2 0 1 1 0 0 1 2 0Zm15 8h-2v9h2v-9ZM5 20H3v3h2v-3Zm15-8a1 1 0 1 0 0-2 1 1 0 0 0 0 2Z"/></svg>
